img/icons/twitter-icon.svg

<svg width="21" height="17" viewBox="0 0 21 17" fill="none" xmlns="http://www.w3.org/2000/svg">
<path d="M20.5 2.29875C19.7562 2.625 18.9637 2.84125 18.1375 2.94625C18.9875 2.43875 19.6362 1.64125 19.9412 0.68C19.1487 1.1525 18.2737 1.48625 17.3412 1.6725C16.5887 0.87125 15.5162 0.375 14.3462 0.375C12.0762 0.375 10.2487 2.2175 10.2487 4.47625C10.2487 4.80125 10.2762 5.11375 10.3437 5.41125C6.935 5.245 3.91875 3.61125 1.8925 1.1225C0.4435 3.73325 2.0625 5.87375 3.1525 6.6025C2.49375 6.59 1.8475 6.39875 1.3 6.0975C1.3 8.13275 2.72125 9.79 4.585 10.1713C4.1775 10.3065 3.28725 10.38 2.73375 10.2362C3.265 11.86 4.7725 13.0538 6.565 13.0925C5.17 14.1838 3.11425 15.0732 0.5 14.785C2.31625 15.9563 4.46875 16.625 6.79 16.625C14.335 16.625 18.46 10.375 18.46 4.9575C18.46 4.77625 18.4537 4.60125 18.445 4.4275C19.2587 3.85 19.9425 3.12875 20.5 2.29875Z" fill="#1DA1F3"/>
</svg>

<svg width="21" height="17" fill="none" xmlns="http://www.w3.org/2000/svg"><path d="M20.5 2.299a8.55 8.55 0 01-2.363.647A4.077 4.077 0 0019.941.68a8.194 8.194 0 01-2.6.993 4.099 4.099 0 00-7.093 2.804c0 .324.028.637.096.934-3.409-.166-6.425-1.8-8.451-4.288-1.45 2.61.17 4.75 1.26 5.48A4.05 4.05 0 011.3 6.098a4.134 4.134 0 003.285 4.073c-.407.136-1.298.209-1.851.065.531 1.624 2.038 2.818 3.831 2.856C5.17 14.184 3.115 15.073.5 14.785a11.543 11.543 0 006.29 1.84c7.545 0 11.67-6.25 11.67-11.668 0-.18-.006-.356-.015-.53A8.18 8.18 0 0020.5 2.3z" fill="#1DA1F3"/></svg>
